!!!OTL: Wanderlust.
!!!OTL-incipit: ICH  WILL MIR MAL  DIE WELT BESEHN
!!!COM: Volksweise
!!!ARE: Europa, Mitteleuropa, Deutschland
!!!SCT: F0370
!!!TXL: @@DE
!!!YEM: Copyright 1995, estate of Helmut Schaffrath.
**kern	**text
*ICvox	*
*M4/4	*
*met(c)	*
*k[f#c#]	*
*D:	*
!LO:TX:a:t=Im mäßigen Warschtempo.	!
!LO:TX:a:t=Zweistimmig.	!
{(>8f#L	1._Jch
8gJ)	.
=1	=1
4a	will
4f#	mir
4d	mal
(>8dd/L	die
8cc#J)	.
=2	=2
4.b/	Welt
8a	be-
4g}	-ſeh'n,
{(>8gL	will
8f#J)	.
=3	=3
4e	wan-
4c#	-dern
4.a	in
8g	die
=4	=4
2g	Wei-
4f#}	-te;
{(>8f#L	denn
8gJ)	.
=5	=5
4a	stets
4f#	im
4d	al-
(>8dd/L	-ten
8cc#J)	.
=6	=6
4.b/	Gleis
8a	ʒu
4g#}	gehn,
{4b/	macht
=7	=7
4.ee/	währ-
8dd/	-lich
4cc/	we-
4b/	-nig
=8	=8
2b/	Freu-
4a}	-de.
{4a	Drum
=9	=9
(>8bL	ſich's
8aJ)	.
(>8b/L	gar
8cc#J)	.
4dd/	wohl
4a	der
=10	=10
4ee/	Mü-
4a	-he
4ff#/}	lohnt,
{4dd/	ʒu
=11	=11
4cc#/	ſehn,
4b/	wer
4.gg/	hin-
8ee/	-ter'm
=12	=12
(>8dd/L	Ber-
8cc#J)	.
(>8b/L	-ge
8cc#J)	.
4dd/}	wohnt
{4a	drum
=13	=13
(>8b/L	ſich's
8aJ)	.
(>8b/L	gar
8cc#J)	.
4dd/	wohl
4a	der
=14	=14
4ee/	Mü-
4a	-he
4ff#/}	lohnt,
{4dd/	ʒu
=15	=15
4cc#/	ſeh'n,
4b/	wer
4.gg/	hin-
8ee/	-term
=16	=16
4dd/	Ber-
4cc#/	-ge
4dd/}	wohnt.
==	==
!!!AGN: Jugend - Lied, Wander - Lied
!!!ONB: ESAC (Essen Associative Code) Database: FINK
!!!AMT: simple quadruple
!!!AIN: vox
!!!EED: Helmut Schaffrath
!!!EEV: 1.0
!!!RDF**kern: >= above
!!Text: E. Anschuetz
!!!source: Musikalischer Hausschatz der Deutschen. Eine Sammlung von über 1000 Liedern und Gesängen mit Singstimmen und Klavierbegleitung. Leipzig, Litterarisches Verlags-Haus.
!!!page: 220
!!!ENC: Anna Maria Matuszewska
!!!EEV: 2025/03/14
*-	*-
